_includes/social-icons/orcid.svg

<style type="text/css">
	.st0{fill:#000000;}
	.st1{fill:#FFFFFF;}
</style>
<path class="st0" d="M256,128c0,70.7-57.3,128-128,128C57.3,256,0,198.7,0,128C0,57.3,57.3,0,128,0C198.7,0,256,57.3,256,128z"/>
<g>
	<path class="st1" d="M86.3,186.2H70.9V79.1h15.4v48.4V186.2z"/>
	<path class="st1" d="M108.9,79.1h41.6c39.6,0,57,28.3,57,53.6c0,27.5-21.5,53.6-56.8,53.6h-41.8V79.1z M124.3,172.4h24.5
		c34.9,0,42.9-26.5,42.9-39.7c0-21.5-13.7-39.7-43.7-39.7h-23.7V172.4z"/>
	<path class="st1" d="M88.7,56.8c0,5.5-4.5,10.1-10.1,10.1c-5.6,0-10.1-4.6-10.1-10.1c0-5.6,4.5-10.1,10.1-10.1
		C84.2,46.7,88.7,51.3,88.7,56.8z"/>
</g>

<g transform="matrix(0.0625,0,0,0.0625,0,0)">
        <path d="M256,128C256,198.7 198.7,256 128,256C57.3,256 0,198.7 0,128C0,57.3 57.3,0 128,0C198.7,0 256,57.3 256,128Z" style="fill-rule:nonzero;"/>
    </g>
    <g>
        <g transform="matrix(0.0625,0,0,0.0625,0,0)">
            <path d="M86.3,186.2L70.9,186.2L70.9,79.1L86.3,79.1L86.3,186.2Z" style="fill:white;fill-rule:nonzero;"/>
        </g>
        <g transform="matrix(0.0625,0,0,0.0625,0,0)">
            <path d="M108.9,79.1L150.5,79.1C190.1,79.1 207.5,107.4 207.5,132.7C207.5,160.2 186,186.3 150.7,186.3L108.9,186.3L108.9,79.1ZM124.3,172.4L148.8,172.4C183.7,172.4 191.7,145.9 191.7,132.7C191.7,111.2 178,93 148,93L124.3,93L124.3,172.4Z" style="fill:white;fill-rule:nonzero;"/>
        </g>
        <g transform="matrix(0.0625,0,0,0.0625,0,0)">
            <path d="M88.7,56.8C88.7,62.3 84.2,66.9 78.6,66.9C73,66.9 68.5,62.3 68.5,56.8C68.5,51.2 73,46.7 78.6,46.7C84.2,46.7 88.7,51.3 88.7,56.8Z" style="fill:white;fill-rule:nonzero;"/>
        </g>
    </g>
